X:306
%%etbk:tnset id:95,pos:2,rep:3x,ant:
%%etbk:tnset id:323,pos:2,rep:3x,ant:
%%etbk:tnset id:337,pos:2,rep:3x,ant:
%%etbk:wsite http://www.thesession.org/tunes/display/544
%%etbk:pldat 2016-06-21T15:28,2016-05-05T11:12,2016-05-04T16:00,2016-05-04T14:22,2016-05-03T16:12,2016-05-02T17:55,2016-04-25T17:55,2016-04-09T14:08,2016-04-08T18:03,2016-04-07T15:12,2016-04-05T15:25,2016-04-04T18:01,2016-04-03T13:38,2016-04-02T13:33,2016-03-31T15:03,2016-03-30T15:48,2016-03-10T18:16,2016-03-08T15:22,2016-03-05T13:20,2016-02-16T17:11,2015-10-29T18:14,2015-10-27T16:01,2015-10-24T15:36,2015-10-20T16:19,2015-10-07T16:49,2015-10-01T18:48,2015-06-22T18:07,2015-03-13T18:55,2015-03-10T15:57,2015-03-06T15:53,2015-03-04T15:12,2015-03-03T18:11,2015-02-14T14:25,2015-01-27T15:56,2014-11-06T17:56,2014-11-04T15:37,2014-11-01T13:43,2014-10-20T18:17,2014-09-04T18:41,2014-09-03T18:53,2014-09-02T18:44,2014-09-01T18:46,2014-08-31T14:04,2014-08-28T18:42,2014-08-26T16:56,2014-08-20T18:30,2014-08-04T18:08,2014-06-23T18:00,2014-06-10T18:04,2014-03-06T17:58,2014-03-04T18:02,2014-03-01T17:16,2014-02-24T17:56,2014-02-20T18:51,2014-02-14T15:25,2013-10-30T16:32,2013-10-29T16:10,2013-10-28T18:50,2013-10-27T13:56,2013-10-23T18:03,2013-10-18T15:36,2013-10-17T19:04,2013-10-16T15:44,2013-10-15T18:11,2013-10-14T18:33,2013-10-13T14:48,2013-10-08T15:50
T:Garrett Barry's
Z: Piano Box Version by Martin Fleischmann
H: Created 2013-02-19 /  Last Modified 2013-02-19
L:1/8
R:jig
M:6/8
K: Dmix
|: "D"!1!DE!3!F !1!G!2!G!1!G | !2!AGA !4!c2!1!A | {e}!3!dcA d2e | !5!fed !2!c!1!A!3!G |
!1!E!2!FF !3!G!2!F!3!G | !1!A!2!A!1!A !2!cde | "A"!3!d!2!c!1!A !3!G!1!E!4!A | "D"!1!D !3!(3D!2!D!1!D !1!D3:|
|: "D"!3!dcA d2e | !5!fed !4!e!5!ge | !3!dcA "A"!2!c2d | !4!e!5!f!3!d !4!e!2!c!1!A |
"D"!3!dcA !3!d2e | !5!fed !4!e!5!ge | "A"!3!d!2!c!1!A !3!G!1!E!4!A | "D"!1!D !3!(3D!2!D!1!D !1!D3 :|


